img/svg_icons/notes.svg

<svg width="30" height="26" viewBox="0 0 30 26" fill="none" xmlns="http://www.w3.org/2000/svg">
<path fill-rule="evenodd" clip-rule="evenodd" d="M23 1H7V2H23V1ZM6 3H24V4H6V3ZM5 5H25V25H5V5ZM15.5 13.4816V17.2941C15.5 19.3408 13.8408 21 11.7941 21C11.3555 21 11 20.6445 11 20.2059V19.1297C11 18.488 11.4682 17.9424 12.1024 17.8448L14.152 17.5297C14.6399 17.4546 15 17.0349 15 16.5413V15V11V10.7938C15 10.3228 15.3287 9.91565 15.7891 9.81632L19.3946 9.03843C19.706 8.97123 20 9.20857 20 9.52718V11.701C20 11.9443 19.8249 12.1522 19.5852 12.1937L16.1582 12.7866C15.8057 12.8476 15.5406 13.1336 15.5 13.4816Z" fill="white"/>
</svg>

<svg width="30" height="26" fill="none" xmlns="http://www.w3.org/2000/svg"><path fill-rule="evenodd" clip-rule="evenodd" d="M23 1H7v1h16V1zM6 3h18v1H6V3zM5 5h20v20H5V5zm10.5 8.482v3.812A3.706 3.706 0 0111.794 21a.794.794 0 01-.794-.794V19.13a1.3 1.3 0 011.102-1.285l2.05-.315a1 1 0 00.848-.99v-5.746a1 1 0 01.79-.978l3.605-.778a.5.5 0 01.605.49V11.7a.5.5 0 01-.415.493l-3.427.593a.8.8 0 00-.658.695z" fill="#fff"/></svg>
